X: 37171
T: Sir George MacKenzie
R: reel
M: 4/4
K: Dmajor
c|d2AF DFAF|d2AF EecA|d2AF DFAF|GEAG FDD:|
G|F/E/D AD BDAD|F/E/D AF GEEG|F/E/D AD BDAD|A,C2E FDDG|
F/E/D AD BDAD|F/E/D AF GEEG|F/G/A AF GBAg|fdec dA F||

